assets/illustrations/multisize/16/pptx.svg

<?xml version="1.0" encoding="utf-8"?>
<!-- Generator: Adobe Illustrator 21.1.0, SVG Export Plug-In . SVG Version: 6.00 Build 0)  -->
<svg version="1.1" xmlns="http://www.w3.org/2000/svg" xmlns:xlink="http://www.w3.org/1999/xlink" x="0px" y="0px"
	 viewBox="0 0 16 16" enable-background="new 0 0 16 16" xml:space="preserve">
<g id="TEMPLATE" display="none">
	<g display="inline">
		<path fill="#D0D0D0" d="M16,0v16H0V0H16 M17-1h-1H0h-1v1v16v1h1h16h1v-1V0V-1L17-1z"/>
	</g>
</g>
<g id="ICONS">
	<polygon fill="#FFFFFF" points="14,15 4,15 4,1 12,1 14,2.9998 	"/>
	<path fill="#F5BA9D" d="M10,3c1.1046,0,2,0.8954,2,2l-2-0.0002V3z"/>
	<path fill="#949494" d="M12,0H3v16h12V3L12,0z M12,1.5L13.5,3H12V1.5z M14,15H4V1h7v3h3V15z"/>
	<path fill="#C8C8C8" d="M12,6c0,1.6569-1.3431,3-3,3S6,7.6569,6,6s1.3431-3,3-3L8.9996,6H12z"/>
	<rect x="8" y="11" fill="#C8C8C8" width="5" height="1"/>
	<rect x="8" y="13" fill="#C8C8C8" width="5" height="1"/>
	<polygon fill="#B7472A" points="1,5 8,4 8,14 1,13 	"/>
	<g>
		<path fill="#FFFFFF" d="M5,7H4H3v1v3h1v-1h1V9h1V8H5V7z M5,9H4V8h1V9z"/>
		<rect x="5" y="9" opacity="0.6" fill="#FFFFFF" width="1" height="1"/>
		<rect x="5" y="7" opacity="0.6" fill="#FFFFFF" width="1" height="1"/>
	</g>
</g>
</svg>

<svg id="cd7ad8e5-89ca-4424-97ef-75d6c66284bd" data-name="ICONS" xmlns="http://www.w3.org/2000/svg" viewBox="0 0 16 16"><title>FileTypeIcons_Master_All_NEW</title><polygon points="14 15 4 15 4 1 12 1 14 3 14 15" fill="#fff"/><path d="M10,3a2,2,0,0,1,2,2l-2-.00024Z" fill="#f5ba9d"/><path d="M12,0H3V16H15V3Zm0,1.5L13.5,3H12ZM14,15H4V1h7V4h3Z" fill="#949494"/><path d="M12,6A3,3,0,1,1,9,3L8.99965,6Z" fill="#c8c8c8"/><rect x="8" y="11" width="5" height="1" fill="#c8c8c8"/><rect x="8" y="13" width="5" height="1" fill="#c8c8c8"/><polygon points="1 5 8 4 8 14 1 13 1 5" fill="#b7472a"/><path d="M5,7H3v4H4V10H5V9H6V8H5ZM5,9H4V8H5Z" fill="#fff"/><rect x="5" y="9" width="1" height="1" fill="#fff" opacity="0.6"/><rect x="5" y="7" width="1" height="1" fill="#fff" opacity="0.6"/></svg>
